X:117
T:McEnespie's Kitchen* (j)
B:NFID.231b  ("untitled jig")
117mcen_k
S:PT
L:1/8
M:6/8
R:jig
Q:320
K:D
D|DFA AFA|BGB A2B|=cEE EFG|AFD D2D|
DFA AFA|BGB AFA|dcd ecA|d3 d2:|
g|fdf fdf|ecA A2g|fdf fdf|g3 e2g|
fdf fdf|ecA AGA|Bcd ecA|d3 d2:|

%%%

